X: 4
T: Tam Lin
R: reel
M: 4/4
L: 1/8
K: Dmin
|B,DFD B,DFD|CEGE CEGE|FAGE FEDC|A,DFD A,DFD|B,DFD B,DFD|CEGE CEGE|FDEC D3A:||:d^cdA FDD2|d^cdA FDD2|cEEE cEdE|cEEE A=BcA|d^cdA FDD2|d^cdA FDD2|B,DFD CEGE|FDEC D3:|


Tune 248	Setting 20857

